X:14001
T:Ravenscroft's Fancy
B:Walsh
M:3/2
L:1/8
N:
K:Cm
EGBe dcBA G4| cBAG AFGA D4| A,DFA GFED EcBA| GEDE B,EDG E4::\
gfed cBAG a4|fedc BAGF e4|edcB AGFE DcBA| GEDE B,EDF E4::\
EDCB,CA,G,A, C A,G,A,| FEDC FB,=A,B DB,=A,B| GFED EGFG DcBA| GEDE B,EDF E4::\
Bdfb fdBd fagf| edcB AGFD D2| B,DFA GFED GcBA| GEDE BEDF G4::\
B3 A GFED EGEC| c3 B AGFE FAFD|  d3 c BAGF EcBA| GEDE B,EDF E2:: \
bgaf gefd f2 c2|BGAF GEFC D4|EGFA GBAc Bedc| BAGF FEFD E4:|
